static/img/logo.svg

<svg width="200" height="190" viewBox="0 0 200 190" fill="none" xmlns="http://www.w3.org/2000/svg">
<path fill-rule="evenodd" clip-rule="evenodd" d="M125.826 94.9722L125.719 96.0327V96.1387V96.2448V96.3508C125.719 96.5629 125.612 96.881 125.505 97.1992C125.291 97.9415 125.077 98.896 124.648 99.9565C123.899 102.183 122.615 105.153 120.688 108.228C116.836 114.379 109.344 122.015 96.9287 122.015C91.0423 122.015 86.0121 120.318 82.0521 117.348C78.1992 114.485 75.8446 110.773 74.3462 107.486C72.9549 104.198 72.3127 101.123 71.9917 98.896C71.8846 97.7294 71.7776 96.775 71.6706 96.1387C71.6706 95.8206 71.6706 95.5024 71.6706 95.2903C71.6706 95.1843 71.6706 95.1843 71.6706 95.1843V95.0782C57.8642 101.017 49.4092 108.865 49.4092 108.865C49.4092 108.865 73.7041 128.378 97.5709 128.378C124.648 128.378 147.659 108.865 147.659 108.865C147.659 108.865 138.99 100.805 125.826 94.9722Z" fill="#F4F4F4"/>
<path d="M71.8506 97.4896C79.801 93.9288 89.6285 91.0332 100.55 91.0332C109.77 91.0332 118.382 93.5613 125.631 96.808C125.594 96.9332 125.549 97.0661 125.505 97.199C125.454 97.3743 125.404 97.5614 125.35 97.7589C125.178 98.3979 124.976 99.1462 124.648 99.9563C123.899 102.183 122.615 105.153 120.689 108.228C116.836 114.379 109.344 122.014 96.9288 122.014C91.0423 122.014 86.0121 120.318 82.0521 117.348C78.1992 114.485 75.8446 110.773 74.3463 107.486C72.9549 104.198 72.3128 101.123 71.9917 98.8959C71.9447 98.3831 71.8976 97.9114 71.8506 97.4896Z" fill="#CCE9D9"/>
<path d="M80.2803 92.453C80.2803 92.453 81.132 112.079 96.9882 112.079C112.646 112.079 118.608 92.453 118.608 92.453C118.608 92.453 110.685 89.4139 98.5926 89.4882C86.4999 89.5624 80.2803 92.453 80.2803 92.453Z" fill="#060809"/>
<path d="M15.3809 14.096C15.3809 14.096 24.2548 169.393 96.1968 183.683C168.139 197.972 185.57 4.83154 185.57 4.83154" stroke="#060809" stroke-width="6.57895" stroke-miterlimit="10" stroke-linecap="round"/>
<path d="M5.39648 73.7654C5.39648 73.7654 46.7552 62.6167 106.813 63.0878C166.711 63.5588 193.492 69.6828 193.492 69.6828" stroke="#060809" stroke-width="6.57895" stroke-miterlimit="10" stroke-linecap="round"/>
<path d="M49.1309 109.096C49.1309 109.096 70.5233 89.3105 99.6805 89.3105C126.144 89.3105 147.378 109.096 147.378 109.096" stroke="#060809" stroke-width="6.57895" stroke-miterlimit="10" stroke-linecap="round"/>
<path d="M147.38 109.096C147.38 109.096 124.403 128.567 97.3057 128.567C73.3779 128.567 48.9746 109.096 48.9746 109.096" stroke="#060809" stroke-width="6.57895" stroke-miterlimit="10" stroke-linecap="round"/>
</svg>

<svg xmlns="http://www.w3.org/2000/svg" viewBox="0 0 200 190">
    <path fill="#f4f4f4"
        d="M125.7 94.1a63 63 0 00-53.9.7c0-.3-22.4 14-22.4 14s24.3 19.5 48.2 19.5c27.1 0 50.1-19.5 50.1-19.5l-22-14.7z" />
    <path fill="#060809"
        d="M80.3 92.5s.9 19.6 16.7 19.6c15.7 0 21.6-19.6 21.6-19.6s-7.9-3-20-3c-12.1.1-18.3 3-18.3 3z" />
    <path fill="none" stroke="#060809" stroke-linecap="round" stroke-miterlimit="10" stroke-width="6.6"
        d="M15.4 14.1s8.9 155.3 80.8 169.6C168.1 198 185.6 4.8 185.6 4.8" />
    <path fill="none" stroke="#060809" stroke-linecap="round" stroke-miterlimit="10" stroke-width="6.6"
        d="M5.4 73.8s41.4-11.1 101.4-10.7c59.9.5 86.7 6.6 86.7 6.6M49.1 109.1s21.4-19.8 50.5-19.8c26.5 0 47.7 19.8 47.7 19.8m.1 0s-23 19.5-50.1 19.5c-23.9 0-48.3-19.5-48.3-19.5" />
</svg>
